packages/kaspersky-hexa-ui-icons/src/iconsSVGs/16/ChartBar.svg

<svg width="16" height="16" viewBox="0 0 16 16" fill="none" xmlns="http://www.w3.org/2000/svg">
<path d="M3.05386 1.61491C3.05444 1.25592 2.76389 0.964444 2.40491 0.963868C2.04592 0.963294 1.75444 1.25384 1.75387 1.61283L1.7334 14.3851C1.73282 14.7441 2.02337 15.0356 2.38236 15.0361C2.74134 15.0367 3.03282 14.7462 3.0334 14.3872L3.05386 1.61491Z" fill="black"/>
<path fill-rule="evenodd" clip-rule="evenodd" d="M5.83033 1.08777C5.02952 1.08777 4.38033 1.73696 4.38033 2.53777V3.74153C4.38033 4.54234 5.02952 5.19153 5.83033 5.19153H12.8175C13.6183 5.19153 14.2675 4.54234 14.2675 3.74153V2.53777C14.2675 1.73696 13.6183 1.08777 12.8175 1.08777H5.83033ZM5.68033 2.53777C5.68033 2.45493 5.74749 2.38777 5.83033 2.38777H12.8175C12.9003 2.38777 12.9675 2.45493 12.9675 2.53777V3.74153C12.9675 3.82437 12.9003 3.89153 12.8175 3.89153H5.83033C5.74749 3.89153 5.68033 3.82437 5.68033 3.74153V2.53777Z" fill="black"/>
<path fill-rule="evenodd" clip-rule="evenodd" d="M4.38033 7.46013C4.38033 6.65932 5.02952 6.01013 5.83033 6.01013H9.19816C9.99898 6.01013 10.6482 6.65932 10.6482 7.46013V8.66389C10.6482 9.4647 9.99898 10.1139 9.19816 10.1139H5.83033C5.02952 10.1139 4.38033 9.4647 4.38033 8.66389V7.46013ZM5.83033 7.31013C5.74749 7.31013 5.68033 7.37729 5.68033 7.46013V8.66389C5.68033 8.74673 5.74749 8.81389 5.83033 8.81389H9.19816C9.28101 8.81389 9.34816 8.74673 9.34816 8.66389V7.46013C9.34816 7.37729 9.28101 7.31013 9.19816 7.31013H5.83033Z" fill="black"/>
<path fill-rule="evenodd" clip-rule="evenodd" d="M5.83033 10.9324C5.02952 10.9324 4.38033 11.5816 4.38033 12.3824V13.5861C4.38033 14.3869 5.02952 15.0361 5.83033 15.0361H11.8101C12.6109 15.0361 13.2601 14.3869 13.2601 13.5861V12.3824C13.2601 11.5816 12.6109 10.9324 11.8101 10.9324H5.83033ZM5.68033 12.3824C5.68033 12.2995 5.74749 12.2324 5.83033 12.2324H11.8101C11.8929 12.2324 11.9601 12.2995 11.9601 12.3824V13.5861C11.9601 13.669 11.8929 13.7361 11.8101 13.7361H5.83033C5.74749 13.7361 5.68033 13.669 5.68033 13.5861V12.3824Z" fill="black"/>
</svg>

<svg xmlns="http://www.w3.org/2000/svg" width="16" height="16" fill="none" viewBox="0 0 16 16"><path fill="#000" fill-rule="evenodd" d="M3.0539 1.615a.65.65 0 1 0-1.3-.0022l-.0205 12.7723a.65.65 0 0 0 .649.651.65.65 0 0 0 .651-.6489zm2.7764-.5272c-.8008 0-1.45.6491-1.45 1.45v1.2037c0 .8009.6492 1.45 1.45 1.45h6.9872c.8008 0 1.45-.6491 1.45-1.45V2.5378c0-.8008-.6492-1.45-1.45-1.45zm-.15 1.45a.15.15 0 0 1 .15-.15h6.9872a.15.15 0 0 1 .15.15v1.2037a.15.15 0 0 1-.15.15H5.8303a.15.15 0 0 1-.15-.15zm-1.3 4.9223c0-.8008.6492-1.45 1.45-1.45h3.3679c.8008 0 1.45.6492 1.45 1.45V8.664c0 .8008-.6492 1.45-1.45 1.45H5.8303c-.8008 0-1.45-.6492-1.45-1.45zm1.45-.15a.15.15 0 0 0-.15.15V8.664a.15.15 0 0 0 .15.15h3.3679a.15.15 0 0 0 .15-.15V7.46a.15.15 0 0 0-.15-.15zm0 3.6223c-.8008 0-1.45.6492-1.45 1.45v1.2037c0 .8008.6492 1.45 1.45 1.45h5.9798c.8008 0 1.45-.6492 1.45-1.45v-1.2037c0-.8008-.6492-1.45-1.45-1.45zm-.15 1.45a.15.15 0 0 1 .15-.15h5.9798a.15.15 0 0 1 .15.15v1.2037a.15.15 0 0 1-.15.15H5.8303a.15.15 0 0 1-.15-.15z"/></svg>
